X:5273
T:Prince Regent. JMT093
O:england
M:6/8
L:1/8
S:J.Moore,Tyneside,1842.(66b)
R:Quadrille
A:Northumbria
K:D
A|d2d def|d2d def|gfg Bcd|ecA ABc|d2d def|d2d def|gbg ecA|d3d2:|
|:F/G/|A2dB2e|cAc cfa|B2dBgd|"sic"cAcd F/G/|A2dB2e|cAc dfa|A2d Bge|"sic
"edcB c2a2a2:|]


